markupers/assets/images/footer-logo.svg

<svg width="210" height="50" viewBox="0 0 210 50" fill="none" xmlns="http://www.w3.org/2000/svg">
<g clip-path="url('#clip0_2259_1235')">
<path d="M17.1855 32.672L15.0015 30.449L29.8243 15.3624C30.2488 14.9303 30.7527 14.5876 31.3074 14.3538C31.862 14.12 32.4564 13.9996 33.0567 13.9996C33.657 13.9996 34.2515 14.12 34.8061 14.3538C35.3607 14.5876 35.8647 14.9303 36.2891 15.3624L38.4732 17.5853L23.6504 32.672C22.7931 33.5445 21.6304 34.0347 20.418 34.0347C19.2056 34.0347 18.0428 33.5445 17.1855 32.672Z" fill="white"></path>
<path d="M34.0293 32.6729L31.8452 30.45L46.6681 15.3633C47.0925 14.9313 47.5965 14.5886 48.1511 14.3548C48.7057 14.1209 49.3002 14.0006 49.9005 14.0006C50.5008 14.0006 51.0952 14.1209 51.6499 14.3548C52.2045 14.5886 52.7084 14.9313 53.1329 15.3633L55.317 17.5863L40.4941 32.6729C39.6368 33.5455 38.4741 34.0357 37.2617 34.0357C36.0493 34.0357 34.8866 33.5455 34.0293 32.6729Z" fill="white"></path>
<path d="M50.5781 30.4898C50.5781 33.0017 52.5788 35.0381 55.0468 35.0381C57.5149 35.0381 59.5156 33.0017 59.5156 30.4898C59.5156 27.9778 57.5149 25.9414 55.0468 25.9414C52.5788 25.9414 50.5781 27.9778 50.5781 30.4898Z" fill="white"></path>
<path d="M126.901 31.4979H122.784L117.799 25.1702V25.1614V31.4979H114.258V17.5989C114.258 16.6446 114.63 15.7294 115.293 15.0545C115.956 14.3797 116.855 14.0003 117.793 14V14V23.6826L122.513 17.5461H126.735L121.225 24.4371L126.901 31.4979Z" fill="white"></path>
<path d="M195.101 25.0189C194.671 24.4411 194.091 23.9976 193.426 23.7388C192.78 23.4888 192.12 23.2788 191.449 23.1101C190.873 22.9721 190.312 22.7771 189.774 22.5278C189.315 22.3103 189.088 22.0248 189.088 21.6702C189.085 21.5112 189.122 21.3541 189.197 21.2146C189.272 21.0751 189.382 20.9582 189.516 20.8755C189.839 20.6722 190.214 20.5715 190.594 20.5863C191.564 20.5821 192.254 21.0272 192.666 21.9217L195.526 20.3348C195.046 19.4618 194.335 18.743 193.474 18.2599C192.59 17.7721 191.598 17.5228 190.593 17.5356C189.187 17.5356 188.017 17.9129 187.074 18.6598C186.132 19.4068 185.656 20.4329 185.656 21.7394C185.656 22.6008 185.887 23.3213 186.345 23.8897C186.787 24.4501 187.365 24.8835 188.022 25.1472C188.668 25.4064 189.328 25.6272 189.999 25.8086C190.572 25.9544 191.132 26.1522 191.67 26.3996C192.134 26.6222 192.36 26.9114 192.36 27.2623C192.36 28.0168 191.762 28.394 190.571 28.394C189.253 28.394 188.404 27.821 188.026 26.675L185.117 28.3412C186.087 30.437 187.904 31.4849 190.571 31.4849C192.053 31.4849 193.299 31.1152 194.294 30.3871C195.29 29.659 195.787 28.6103 195.787 27.2547C195.787 26.3653 195.558 25.62 195.101 25.0189Z" fill="white"></path>
<path d="M111.963 17.547V21.1409C111.159 21.1938 110.401 21.5413 109.828 22.1192C109.256 22.6971 108.909 23.4664 108.851 24.2846C108.851 24.3601 108.843 24.4355 108.843 24.516C108.841 24.5928 108.844 24.6696 108.851 24.7461V31.4913H105.316V17.542H108.852V18.4084C109.807 17.8727 110.874 17.5773 111.963 17.547Z" fill="white"></path>
<path d="M174.828 23.3705C174.572 21.8103 173.803 20.3849 172.647 19.3278C171.491 18.2706 170.016 17.6445 168.465 17.552C166.914 17.4595 165.377 17.9061 164.108 18.8186C162.839 19.731 161.912 21.0553 161.479 22.5744C161.046 24.0934 161.132 25.7171 161.725 27.1794C162.317 28.6417 163.38 29.8558 164.739 30.6227C166.098 31.3897 167.673 31.664 169.205 31.4008C170.738 31.1375 172.137 30.3523 173.173 29.1738L170.55 26.7694C170.168 27.2091 169.679 27.5396 169.133 27.7284C168.587 27.9171 168.002 27.9577 167.435 27.8459C166.869 27.7342 166.341 27.4741 165.904 27.0912C165.466 26.7084 165.134 26.2161 164.941 25.6629H174.825C174.865 25.4278 174.891 25.1906 174.904 24.9524C174.913 24.8141 174.916 24.6632 174.916 24.5173C174.918 24.1332 174.888 23.7496 174.828 23.3705ZM164.944 23.3705C165.174 22.7146 165.598 22.1472 166.158 21.7461C166.717 21.345 167.385 21.1297 168.069 21.1297C168.754 21.1297 169.421 21.345 169.981 21.7461C170.541 22.1472 170.965 22.7146 171.195 23.3705H164.944Z" fill="white"></path>
<path d="M152.058 17.444C150.898 17.4415 149.757 17.7415 148.744 18.3154V17.5421H145.203V35.04H148.744V30.5256C149.757 31.0991 150.898 31.3987 152.058 31.3958C152.965 31.4082 153.867 31.2369 154.709 30.8919C155.551 30.5469 156.318 30.035 156.964 29.386C157.61 28.737 158.123 27.9638 158.474 27.1113C158.824 26.2588 159.004 25.3439 159.004 24.4199C159.004 23.4958 158.824 22.581 158.474 21.7285C158.123 20.8759 157.61 20.1027 156.964 19.4537C156.318 18.8047 155.551 18.2929 154.709 17.9479C153.867 17.6029 152.965 17.4316 152.058 17.444ZM152.058 27.8057C151.225 27.805 150.423 27.4867 149.809 26.9136C149.196 26.3405 148.816 25.5541 148.744 24.7097C148.735 24.6154 148.73 24.5186 148.73 24.4205C148.73 24.3224 148.73 24.2243 148.744 24.1313C148.799 23.4757 149.04 22.8506 149.438 22.3321C149.836 21.8137 150.374 21.4245 150.985 21.212C151.597 20.9994 152.256 20.9728 152.883 21.1353C153.509 21.2979 154.076 21.6425 154.513 22.1272C154.95 22.6119 155.239 23.2157 155.344 23.8648C155.45 24.5139 155.367 25.1802 155.107 25.7824C154.847 26.3846 154.42 26.8966 153.878 27.2559C153.337 27.6152 152.704 27.8062 152.058 27.8057Z" fill="white"></path>
<path d="M99.4648 17.542V18.4134C98.4211 17.8278 97.2455 17.5292 96.0539 17.5472C94.8623 17.5651 93.6958 17.899 92.6697 18.5158C91.6435 19.1326 90.7931 20.0111 90.2023 21.0645C89.6115 22.1179 89.3008 23.31 89.3008 24.5229C89.3008 25.7359 89.6115 26.9279 90.2023 27.9813C90.7931 29.0348 91.6435 29.9132 92.6697 30.5301C93.6958 31.1469 94.8623 31.4807 96.0539 31.4987C97.2455 31.5166 98.4211 31.2181 99.4648 30.6324V31.4938H103.001V17.542H99.4648ZM96.1475 27.9087C95.499 27.9091 94.8646 27.7167 94.3222 27.355C93.7797 26.9933 93.3529 26.4782 93.0943 25.873C92.8357 25.2678 92.7564 24.5988 92.8663 23.9483C92.9762 23.2979 93.2705 22.6943 93.7129 22.2118C94.1554 21.7293 94.7267 21.3889 95.3567 21.2324C95.9867 21.076 96.6478 21.1103 97.2589 21.3312C97.87 21.552 98.4043 21.9499 98.7962 22.4757C99.1881 23.0015 99.4205 23.6325 99.4648 24.2909C99.4648 24.3676 99.4734 24.4431 99.4734 24.5223C99.4749 24.5995 99.472 24.6768 99.4648 24.7537C99.4072 25.6094 99.0328 26.411 98.417 26.9966C97.8013 27.5822 96.9902 27.9082 96.1475 27.9087Z" fill="white"></path>
<path d="M142.903 17.542V31.5001H139.367V30.6337C138.323 31.221 137.146 31.5209 135.953 31.5039C134.761 31.4868 133.593 31.1534 132.565 30.5366C131.538 29.9197 130.686 29.0407 130.094 27.9864C129.503 26.9321 129.191 25.739 129.191 24.5248V17.542H132.731V24.2871C132.731 24.3626 132.722 24.438 132.722 24.5185C132.722 24.599 132.722 24.6732 132.731 24.7486C132.785 25.6069 133.158 26.4121 133.774 27.0004C134.391 27.5888 135.204 27.9163 136.049 27.9163C136.894 27.9163 137.707 27.5888 138.324 27.0004C138.94 26.4121 139.313 25.6069 139.367 24.7486C139.374 24.6722 139.377 24.5953 139.376 24.5185C139.376 24.438 139.376 24.3626 139.367 24.2871V17.542H142.903Z" fill="white"></path>
<path d="M132.732 24.2871V24.7486C132.732 24.6732 132.723 24.5977 132.723 24.5185C132.723 24.4393 132.728 24.3626 132.732 24.2871Z" fill="white"></path>
<path d="M183.866 17.547V21.1409C183.06 21.1911 182.3 21.5378 181.727 22.1162C181.155 22.6946 180.808 23.4653 180.752 24.2846C180.752 24.3601 180.74 24.4355 180.74 24.516C180.738 24.5929 180.742 24.6699 180.752 24.7461V31.4913H177.219V17.542H180.758V18.4084C181.712 17.8723 182.777 17.5769 183.866 17.547Z" fill="white"></path>
<path d="M86.996 23.2706V31.5122H83.4551V23.4831C83.4551 23.4165 83.4674 23.3461 83.4674 23.2706C83.4674 23.1952 83.4588 23.1285 83.4551 23.0568C83.4036 22.5257 83.1566 22.0342 82.7637 21.6808C82.3707 21.3275 81.861 21.1386 81.3368 21.1522C80.8126 21.1657 80.3129 21.3807 79.9381 21.7538C79.5633 22.127 79.3411 22.6307 79.3162 23.1637C79.3143 23.1679 79.3133 23.1724 79.3133 23.1769C79.3133 23.1815 79.3143 23.186 79.3162 23.1901C79.3143 23.2169 79.3143 23.2438 79.3162 23.2706C79.3143 23.297 79.3143 23.3235 79.3162 23.3498C79.3162 23.3637 79.3162 23.3725 79.3162 23.3775V31.5122H75.7863V23.4831C75.789 23.4387 75.789 23.3942 75.7863 23.3498C75.7882 23.3235 75.7882 23.297 75.7863 23.2706C75.7882 23.2438 75.7882 23.2169 75.7863 23.1901C75.789 23.1449 75.789 23.0995 75.7863 23.0543C75.7332 22.5333 75.4923 22.0509 75.1101 21.7002C74.7279 21.3495 74.2315 21.1554 73.7169 21.1554C73.2023 21.1554 72.7059 21.3495 72.3237 21.7002C71.9415 22.0509 71.7006 22.5333 71.6474 23.0543C71.6474 23.126 71.6351 23.1926 71.6351 23.2681C71.6351 23.3435 71.6437 23.414 71.6474 23.4806V31.4971H68.1016V23.2706C68.1026 22.1279 68.4406 21.0118 69.0716 20.0666C69.7026 19.1215 70.5978 18.3908 71.6413 17.969C72.9702 17.4309 74.4512 17.4309 75.7802 17.969C75.9457 18.0357 76.1076 18.1111 76.2645 18.1916C76.577 18.3544 76.8739 18.5464 77.1516 18.765C77.2862 18.8757 77.4221 18.9914 77.5482 19.1108C77.6717 18.9851 77.8101 18.8757 77.946 18.765C78.2232 18.5464 78.5198 18.3544 78.8318 18.1916C78.9887 18.1111 79.1506 18.0357 79.3162 17.969C80.6451 17.4309 82.1261 17.4309 83.4551 17.969C84.4988 18.3906 85.3942 19.1212 86.0254 20.0664C86.6567 21.0115 86.9948 22.1277 86.996 23.2706Z" fill="white"></path>
</g>
<defs>
<clipPath id="clip0_2259_1235">
<rect width="181" height="21" fill="white" transform="translate(15 14)"></rect>
</clipPath>
</defs>
</svg>

<svg width="210" height="50" fill="none" xmlns="http://www.w3.org/2000/svg">
  <g clip-path="url('#clip0_2259_1235')" fill="#fff">
    <path d="m17.186 32.672-2.184-2.223 14.822-15.087a4.565 4.565 0 0 1 1.483-1.008 4.502 4.502 0 0 1 3.5 0 4.565 4.565 0 0 1 1.482 1.008l2.184 2.223L23.65 32.672a4.531 4.531 0 0 1-3.232 1.363 4.532 4.532 0 0 1-3.232-1.363Zm16.844.001-2.185-2.223 14.823-15.087a4.566 4.566 0 0 1 1.483-1.008 4.5 4.5 0 0 1 3.499 0 4.567 4.567 0 0 1 1.483 1.008l2.184 2.223-14.823 15.087a4.531 4.531 0 0 1-3.232 1.363 4.531 4.531 0 0 1-3.233-1.363Zm16.548-2.183c0 2.512 2 4.548 4.469 4.548 2.468 0 4.469-2.036 4.469-4.548s-2.001-4.549-4.47-4.549c-2.467 0-4.468 2.037-4.468 4.549Zm76.323 1.008h-4.117l-4.985-6.328v-.009 6.337h-3.541v-13.9c0-.953.372-1.869 1.035-2.543a3.506 3.506 0 0 1 2.5-1.055v9.683l4.72-6.137h4.222l-5.51 6.891 5.676 7.06Zm68.2-6.479a3.814 3.814 0 0 0-1.675-1.28c-.646-.25-1.306-.46-1.977-.629a8.935 8.935 0 0 1-1.675-.582c-.459-.218-.686-.503-.686-.858a.925.925 0 0 1 .109-.455.898.898 0 0 1 .319-.34 1.884 1.884 0 0 1 1.078-.289c.97-.004 1.66.441 2.072 1.336l2.86-1.587a5.31 5.31 0 0 0-2.052-2.075 5.808 5.808 0 0 0-2.881-.724c-1.406 0-2.576.377-3.519 1.124-.942.747-1.418 1.773-1.418 3.08 0 .86.231 1.581.689 2.15.442.56 1.02.994 1.677 1.257.646.26 1.306.48 1.977.662a9.765 9.765 0 0 1 1.671.59c.464.223.69.512.69.863 0 .755-.598 1.132-1.789 1.132-1.318 0-2.167-.573-2.545-1.719l-2.909 1.666c.97 2.096 2.787 3.144 5.454 3.144 1.482 0 2.728-.37 3.723-1.098.996-.728 1.493-1.777 1.493-3.132 0-.89-.229-1.635-.686-2.236Zm-83.138-7.472v3.594c-.804.053-1.562.4-2.135.978a3.422 3.422 0 0 0-.977 2.166c0 .075-.008.15-.008.231-.002.077.001.154.008.23v6.745h-3.535V17.542h3.536v.866a6.742 6.742 0 0 1 3.111-.861Zm62.865 5.823a7.015 7.015 0 0 0-2.181-4.042 6.797 6.797 0 0 0-4.182-1.776 6.77 6.77 0 0 0-4.357 1.267 6.977 6.977 0 0 0-2.629 3.755 7.091 7.091 0 0 0 .246 4.605 6.937 6.937 0 0 0 3.014 3.444 6.754 6.754 0 0 0 4.466.778 6.823 6.823 0 0 0 3.968-2.227l-2.623-2.405c-.382.44-.871.77-1.417.96a3.262 3.262 0 0 1-1.698.117 3.29 3.29 0 0 1-1.531-.755 3.37 3.37 0 0 1-.963-1.428h9.884a6.86 6.86 0 0 0 .091-1.146 7.101 7.101 0 0 0-.088-1.146Zm-9.884 0a3.367 3.367 0 0 1 1.214-1.624 3.278 3.278 0 0 1 3.823 0c.56.401.984.969 1.214 1.625h-6.251Zm-12.886-5.926a6.691 6.691 0 0 0-3.314.871v-.773h-3.541V35.04h3.541v-4.514a6.69 6.69 0 0 0 3.314.87 6.75 6.75 0 0 0 2.651-.504 6.845 6.845 0 0 0 2.255-1.506 7.002 7.002 0 0 0 1.51-2.275 7.088 7.088 0 0 0 0-5.383 7.001 7.001 0 0 0-1.51-2.274 6.844 6.844 0 0 0-2.255-1.506 6.75 6.75 0 0 0-2.651-.504Zm0 10.362a3.299 3.299 0 0 1-2.249-.892 3.414 3.414 0 0 1-1.079-2.494c0-.098 0-.196.014-.289.055-.655.296-1.28.694-1.799a3.332 3.332 0 0 1 1.547-1.12 3.274 3.274 0 0 1 1.898-.077 3.32 3.32 0 0 1 1.63.992 3.442 3.442 0 0 1 .594 3.655 3.367 3.367 0 0 1-1.229 1.474c-.541.36-1.174.55-1.82.55ZM99.465 17.542v.871a6.76 6.76 0 0 0-6.795.103 6.92 6.92 0 0 0-2.468 2.549 7.073 7.073 0 0 0-.901 3.458c0 1.213.31 2.405.901 3.458a6.92 6.92 0 0 0 2.468 2.55 6.76 6.76 0 0 0 6.795.102v.86H103v-13.95h-3.536Zm-3.318 10.367a3.285 3.285 0 0 1-1.825-.554 3.372 3.372 0 0 1-1.228-1.482 3.442 3.442 0 0 1-.228-1.925 3.41 3.41 0 0 1 .847-1.736 3.316 3.316 0 0 1 1.644-.98 3.272 3.272 0 0 1 1.902.1 3.33 3.33 0 0 1 1.537 1.144 3.43 3.43 0 0 1 .669 1.815c0 .077.008.152.008.231a3.41 3.41 0 0 1-1.056 2.474 3.295 3.295 0 0 1-2.27.913Zm46.756-10.367V31.5h-3.536v-.866a6.765 6.765 0 0 1-3.414.87 6.773 6.773 0 0 1-3.388-.967 6.93 6.93 0 0 1-2.471-2.55 7.083 7.083 0 0 1-.903-3.462v-6.983h3.54v6.745c0 .076-.009.151-.009.232 0 .08 0 .154.009.23A3.41 3.41 0 0 0 133.774 27c.617.589 1.43.916 2.275.916s1.658-.327 2.275-.916a3.41 3.41 0 0 0 1.043-2.251c.007-.077.01-.154.009-.23 0-.081 0-.156-.009-.232v-6.745h3.536Z"/>
    <path d="M132.732 24.287v.462c0-.076-.009-.151-.009-.23 0-.08.005-.156.009-.232Zm51.134-6.74v3.594a3.3 3.3 0 0 0-2.139.975 3.416 3.416 0 0 0-.975 2.169c0 .075-.012.15-.012.231-.002.077.002.154.012.23v6.745h-3.533V17.542h3.539v.866a6.717 6.717 0 0 1 3.108-.861Zm-96.87 5.723v8.242h-3.54v-8.029c0-.067.011-.137.011-.212 0-.076-.008-.143-.012-.214a2.126 2.126 0 0 0-.691-1.376 2.054 2.054 0 0 0-1.427-.529 2.058 2.058 0 0 0-1.399.602 2.13 2.13 0 0 0-.622 1.596v8.162h-3.53v-8.029a1.098 1.098 0 0 0 0-.133.55.55 0 0 0 0-.08.57.57 0 0 0 0-.08 1.14 1.14 0 0 0 0-.136 2.13 2.13 0 0 0-.676-1.354 2.06 2.06 0 0 0-1.393-.545 2.06 2.06 0 0 0-1.393.545c-.382.35-.623.833-.677 1.354 0 .072-.012.139-.012.214 0 .075.009.146.012.213v8.016h-3.545v-8.226a5.782 5.782 0 0 1 .97-3.204 5.63 5.63 0 0 1 2.57-2.098 5.508 5.508 0 0 1 4.623.223 5.668 5.668 0 0 1 1.283.919c.124-.126.262-.235.398-.346a5.657 5.657 0 0 1 1.37-.796 5.508 5.508 0 0 1 4.14 0 5.63 5.63 0 0 1 2.57 2.097c.63.946.969 2.062.97 3.205Z"/>
  </g>
  <defs>
    <clipPath id="clip0_2259_1235">
      <path fill="#fff" transform="translate(15 14)" d="M0 0h181v21H0z"/>
    </clipPath>
  </defs>
</svg>
